X: 60
T:Red Haired Boy
M:4/4
L:1/8
Q:180
K:A
A2|"A"EAAG ABcd|efec "D"d2cd|"A"e2A2 AAcA|"E"BGEF "G"=G2FG|
"A"E2A2 ABcd|efec "D"d2cd|"A"e2a2 a=ged|c2"(E)"A2 "(A)"A2::
{a}.ef|"Em"=g3f gagf|=gfec "G"d2cd|"A"e2A2 ABcA|"E"BGEF "G"=G2FG|
"A"E2A2 ABcd|efec "D"d2cd|"A"e2a2 afed|c2"(E)"A2 "(A)"A2:||
